map-marker-circle.svg

<svg fill="currentColor" viewBox="0 0 24 24"><path d="M12 20a8 8 0 0 1-8-8 8 8 0 0 1 8-8 8 8 0 0 1 8 8 8 8 0 0 1-8 8m0-18A10 10 0 0 0 2 12a10 10 0 0 0 10 10 10 10 0 0 0 10-10A10 10 0 0 0 12 2m0 10.5a1.5 1.5 0 0 1-1.5-1.5A1.5 1.5 0 0 1 12 9.5a1.5 1.5 0 0 1 1.5 1.5 1.5 1.5 0 0 1-1.5 1.5m0-5.3c-2.1 0-3.8 1.7-3.8 3.8 0 3 3.8 6.5 3.8 6.5s3.8-3.5 3.8-6.5c0-2.1-1.7-3.8-3.8-3.8"/></svg>

<svg  viewBox="0 0 24 24" fill="currentColor"><path  d="M12,20A8,8 0 0,1 4,12A8,8 0 0,1 12,4A8,8 0 0,1 20,12A8,8 0 0,1 12,20M12,2A10,10 0 0,0 2,12A10,10 0 0,0 12,22A10,10 0 0,0 22,12A10,10 0 0,0 12,2M12,12.5A1.5,1.5 0 0,1 10.5,11A1.5,1.5 0 0,1 12,9.5A1.5,1.5 0 0,1 13.5,11A1.5,1.5 0 0,1 12,12.5M12,7.2C9.9,7.2 8.2,8.9 8.2,11C8.2,14 12,17.5 12,17.5C12,17.5 15.8,14 15.8,11C15.8,8.9 14.1,7.2 12,7.2Z"/></svg>
